X: 7
T: Trip to Cork
%R: jig
B: "Twenty Four Country Dances for the Year 1782", Thomas Skillern, ed. p.4 #1
F: http://www.vwml.org/browse/browse-collections-dance-tune-books/browse-skillerns1782#
Z: 2014 John Chambers <jc:trillian.mit.edu>
M: 6/8
L: 1/8
K: F
f |\
fed cBA | ded cBA | Bcd cBA | BGG G2f |\
fga gfe | fed cBA | Bcd cdB | AFF F2 :|
|: B |\
AFF cFF | dFF cFF | AFF cBA | BGG G2B |\
AFF cFF | dFF cFF | Bcd cdB | AFF F2 :|
%%begintext align
%%   First and 2d Cu Set and Change Sides
%% back again Lead down the middle up
%% again Set three and three Set Sideways
%% Hands Six round.
%%endtext

%%sep 1 1 500
%%sep 1 1 500
